X: 16
T: No_24_Circle_Dance_Song_(b).krn
N: Derived from No_24_Circle_Dance_Song_(b).krn
%%abc-version 2.0
%%abcx-abcm2ps-target-version 5.9.1 (29 Sep 2008)
%%abc-creator hum2abc beta
%%abcx-conversion-date 2019/03/15 08:35:00
%%humdrum-veritas 1224033445
%%humdrum-veritas-data 2181981773
%%linebreak <none>
%%barnumbers 0
L: 1/8
M: 2/4
K: Bb clef=bass
[K:clef=bass][M:2/4]G,3/F,/ D,G,/G,/ | 
G,3/F,/ B, z | 
G,3/F,/ D,G,/G,/ | 
G,3/F,/ G, z | 
G,3/F,/ D,G,/G,/ | 
G,3/F,/ B, z | 
[M:3/4]G,3/F,/ D,G,/G,/ G, z | 
[M:2/4]G,3/G,/ B,/G,3/ | 
D,G, G,F,/ z/ | 
B,/G,3/ G,F, | 
D,G,/G,/ G, z | 
G,3/G,/ F,G,/ z/ | 
B,G, G,F, | 
B,3/G,/ G,F, | 
D,G,/G,/ G, z ]|:  
G,3/G,/ G,F,/ z/ | 
B,G, G,3/F,// z// | 
B,G, G,3/F,/ | 
D,G,/G,/ G,F,/ z/ | 
B,G, G,3/F,// z// | 
B,G, G,3/F,/ | 
D,G,/G,/ G,F,/ z/ | 
G,G, G,F,/ z/ :|]  



